icons/squarespace.svg

<!--
  - The MIT License (MIT)
  -
  - Copyright (c) 2015-2024 Elior "Mallowigi" Boukhobza
  -
  - Permission is hereby granted, free of charge, to any person obtaining a copy
  - of this software and associated documentation files (the "Software"), to deal
  - in the Software without restriction, including without limitation the rights
  - to use, copy, modify, merge, publish, distribute, sublicense, and/or sell
  - copies of the Software, and to permit persons to whom the Software is
  - furnished to do so, subject to the following conditions:
  -
  - The above copyright notice and this permission notice shall be included in all
  - copies or substantial portions of the Software.
  -
  - THE SOFTWARE IS PROVIDED "AS IS", WITHOUT WARRANTY OF ANY KIND, EXPRESS OR
  - IMPLIED, INCLUDING BUT NOT LIMITED TO THE WARRANTIES OF MERCHANTABILITY,
  - FITNESS FOR A PARTICULAR PURPOSE AND NONINFRINGEMENT. IN NO EVENT SHALL THE
  - AUTHORS OR COPYRIGHT HOLDERS BE LIABLE FOR ANY CLAIM, DAMAGES OR OTHER
  - LIABILITY, WHETHER IN AN ACTION OF CONTRACT, TORT OR OTHERWISE, ARISING FROM,
  - OUT OF OR IN CONNECTION WITH THE SOFTWARE OR THE USE OR OTHER DEALINGS IN THE
  - SOFTWARE.
  -
  -->

<svg  version="1.1" xmlns="http://www.w3.org/2000/svg" viewBox="0 0 512 512" width="16px" height="16px">
  <path fill="#8D6E63" data-iconColor="SquareSpace"
        d="M322.2842102,160.3829041L160.3688049,322.2983398C70.3716507,407.3009338-56.907486,279.522644,27.8868313,189.8163605L158.140274,59.5625191c16.1902771-15.6468239,40.3840027,7.329113,24.5345764,24.534565L52.421196,214.3507385c-53.713459,58.9050598,27.8764038,135.942688,83.4137192,83.4130249l161.9154205-161.9154205C313.9489746,120.465332,338.1569824,142.6767883,322.2842102,160.3829041z M376.2640076,81.8687592C339.7388,45.342823,280.3079834,45.3550911,243.7827148,81.8810272L81.8673019,243.7964478c-15.8738556,15.1877136,7.5221634,41.0040283,24.5336685,24.5338745l161.9154358-161.9154358c23.0005798-23.0005798,60.4247131-23.0005875,83.4137268-0.0122681C368.1077576,121.5948486,391.7015076,99.6099854,376.2640076,81.8687592z M405.697937,243.7966309L243.7825165,405.7120361c-23.0005798,23.0005798-60.4247131,23.0005798-83.4137115,0.0115662c-16.6244812-15.4764099-40.250145,6.9014282-24.5338745,24.5338745c36.525238,36.5259399,95.9560547,36.5136414,132.4812622-0.0115662l161.9154358-161.9154053C446.1294861,250.7120514,421.9983826,228.502182,405.697937,243.7966309z M351.7299194,189.8286285L189.8144989,351.7440491c-15.7275848,16.6136169,7.8362885,40.5204773,24.5338593,24.533844l161.9154663-161.9154205c57.5137024-53.0168762,136.6560364,24.9582062,83.4137268,83.4137421L329.4238586,428.0298462c-15.8161316,18.3135376,7.6363525,39.3065796,24.5345459,24.533844l130.2536926-130.2536316C568.0216675,228.7419281,444.186615,105.6227188,351.7299194,189.8286285z"/>
</svg>

<svg xmlns="http://www.w3.org/2000/svg" viewBox="0 0 512 512"><path fill="#8d6e63" d="M322.284 160.383 160.37 322.298C70.372 407.301-56.907 279.523 27.887 189.816L158.14 59.563c16.19-15.647 40.384 7.329 24.535 24.534L52.42 214.351c-53.713 58.905 27.877 135.942 83.414 83.413L297.75 135.848c16.199-15.383 40.407 6.829 24.534 24.535m53.98-78.514c-36.525-36.526-95.956-36.514-132.481.012L81.867 243.796c-15.874 15.188 7.522 41.004 24.534 24.534l161.915-161.915c23.001-23 60.425-23 83.414-.012 16.378 15.192 39.972-6.793 24.534-24.534m29.434 161.928L243.783 405.712c-23.001 23-60.425 23-83.414.012-16.625-15.477-40.25 6.901-24.534 24.533 36.525 36.526 95.956 36.514 132.481-.011L430.232 268.33c15.897-17.619-8.234-39.829-24.534-24.534m-53.968-53.968L189.814 351.744c-15.727 16.614 7.837 40.52 24.534 24.534l161.916-161.916c57.514-53.016 136.656 24.959 83.414 83.414L329.424 428.03c-15.816 18.313 7.636 39.306 24.534 24.534L484.212 322.31c83.81-93.568-40.025-216.687-132.482-132.481" data-iconColor="SquareSpace"/></svg>
